X: 30241
T: Old Joe's
R: jig
M: 6/8
K: Dmajor
e|fdB AFA|DED DFA|BdB AFA|ABd efg|
fdB AFF|D2B AFA|B/c/dB AFA|Bdd d2:|
|:e|faf efe|dBA d2e|eff ede|faa baa|
faa e/f/ge|dBA d2e|fdB AFA|Bdd d2:|

